svgs/bsnl_ftth_usage.svg

<svg width="192" height="192" viewBox="0 0 192 192" fill="none" xmlns="http://www.w3.org/2000/svg">
<path d="M46.3333 63H29.6667C25.9848 63 23 66.0256 23 69.7579V163.242C23 166.974 25.9848 170 29.6667 170H46.3333C50.0152 170 53 166.974 53 163.242V69.7579C53 66.0256 50.0152 63 46.3333 63Z" stroke="black" stroke-width="12"/>
<path d="M101.333 22H84.6667C80.9848 22 78 25.0119 78 28.7273V163.273C78 166.988 80.9848 170 84.6667 170H101.333C105.015 170 108 166.988 108 163.273V28.7273C108 25.0119 105.015 22 101.333 22Z" stroke="black" stroke-width="12"/>
<path d="M163.333 105H146.667C142.985 105 140 108.01 140 111.724V163.276C140 166.989 142.985 170 146.667 170H163.333C167.015 170 170 166.989 170 163.276V111.724C170 108.01 167.015 105 163.333 105Z" stroke="black" stroke-width="12"/>
</svg>

<svg xmlns="http://www.w3.org/2000/svg" width="192" height="192" fill="none" viewBox="0 0 192 192"><path stroke="#000" stroke-width="12" d="M46.333 63H29.667C25.985 63 23 66.026 23 69.758v93.484c0 3.732 2.985 6.758 6.667 6.758h16.666c3.682 0 6.667-3.026 6.667-6.758V69.758C53 66.026 50.015 63 46.333 63Zm55-41H84.667C80.985 22 78 25.012 78 28.727v134.546c0 3.715 2.985 6.727 6.667 6.727h16.666c3.682 0 6.667-3.012 6.667-6.727V28.727c0-3.715-2.985-6.727-6.667-6.727Zm62 83h-16.666c-3.682 0-6.667 3.01-6.667 6.724v51.552c0 3.713 2.985 6.724 6.667 6.724h16.666c3.682 0 6.667-3.011 6.667-6.724v-51.552c0-3.714-2.985-6.724-6.667-6.724Z"/></svg>
